X:1
T:Bērniņ Jēzu
T:Bērniņ Jēzu
%%score { ( 1 2 ) | ( 3 4 ) }
L:1/8
Q:1/4=100
M:4/4
K:G
V:1 treble nm="P1"
V:2 treble 
V:3 bass 
V:4 bass 
V:1
"^Moderato" D2 D2 | G2 G2 (BA) (GA) | B2 G2 B3 c | d2 d2 c2 B2 | A4 D2 D2 | G2 G2 (BA) (GA) | %6
w: 1. niņ|Jē- zu, mī- * ļais, *|ma- zais, klau- si|ma- nu lūg- ša-|nu: "Ne- dod|1. bet dod * tik *|
w: 2. los|vai- rāk Ta- * vu *|mī- lu, ne- kā|lai- mi pa- sau-|lē. Do- du|2. es sa- * vu *|
w: 3. vu|mai- go, la- * bo *|sir- di, Bēr- niņ|Jē- zu, dā- vā|man un kā|3. gu- mu, * ko *|
 B2 G2 d3 B | A2 F2 E2 G2 | F4 D2 D2 | A3 A A2 B2 | A2 G2 D2 D2 | c3 c c2 B2 | A4 D2 D2 | %13
w: vie- nu, kas mūs|da- rīs lai- mī-|gus. Ne- dod|1. tu tā zūd|āt- ri, ne- dod|sla- vu – drīz|gaist. Dod tik|
w: sir- di, pie- ņem|to un pa- tu-|ri. Sniedz kā|2. va- nu Tu|pre- tī sa- vu|sir- di die- viš-|ķo, lai tā|
w: sar- gi, ma- nā|sir- dī ie- slēdz|to. Lai Tavs|3. liek ma- nai|sir- dij Ta- vā|sir- dī ķī- lai|būt, jo, kas|
 d3 d d2 e2 | d2 c2 B2 A2 | G3 G A2 A2 | B4 B2 c2 | d3 d d2 e2 | d2 c2 c2 c2 | B3 B A2 A2 | G4 |] %21
w: 1. nu: sa- vu|mī- lu, Die- va|Bērns Tu dār- gā-|1. Dod tik|vie- nu: sa- vu|mī- lu, Die- va|Bērns Tu dār- gā-|kais.|
w: 2. pēs, lai tā|sā- pēs ma- nim|ir kā pa- tvē-|2. Lai tā|rū- pēs, lai tā|sā- pēs ma- nim|ir kā pa- tvē-|rums.|
w: 3. der Tev uz|mū- žiem, ne- drīkst|vi- ņu naid- nieks|3. Jo, kas|pie- der Tev uz|mū- žiem, ne- drīkst|vi- ņu naid- nieks|gūt."|
V:2
 D2 D2 | D2 E2 (GF) (EF) | G2 G2 G3 G | G2 G2 A2 G2 | F4 D2 D2 | D2 E2 (GF) (EF) | G2 G2 A3 G | %7
 F2 D2 D2 ^C2 | D4 D2 D2 | E3 E E2 F2 | F2 G2 D2 D2 | E3 E F2 G2 | F4 D2 D2 | G3 F G2 G2 | %14
 G2 G2 F2 F2 | E3 E E2 F2 | G4 G2 F2 | G3 G G2 G2 | B2 A2 A2 F2 | G3 G G2 F2 | G4 |] %21
V:3
 D2 D2 | B,2 B,2 DC B,C | D2 B,2 E3 E | D2 E2 D2 D2 | D4 D2 D2 | B,2 B,2 DC B,C | D2 B,2 D3 D | %7
 C2 B,2 B,2 A,2 | A,4 D2 D2 | C3 C C2 D2 | C2 B,2 B,2 B,2 | A,3 A, A,2 B,C | D4 D2 C2 | %13
 B,3 C D2 C2 | D2 E2 D2 C2 | B,3 B, C2 D2 | D4 D2 D2 | D3 D B,2 B,2 | E2 E2 D2 D2 | D3 E E2 DC | %20
 B,4 |] %21
V:4
 D,2 D,2 | G,2 E,2 D,2 D,2 | G,2 G,2 E,3 A, | B,2 E,2 F,2 G,2 | D,4 D,2 D,2 | G,2 E,2 D,2 D,2 | %6
 G,2 G,2 F,3 G, | A,2 B,2 G,2 A,2 | D,4 z4 | z8 | z8 | z8 | z4 D,2 D,2 | G,3 A, B,2 C2 | %14
 B,2 A,2 D,2 D,2 | E,3 E, A,2 D,2 | G,4 G,2 A,2 | B,3 B, E,2 E,2 | ^G,2 A,2 F,2 D,2 | %19
 G,3 E, C,2 D,2 | G,4 |] %21

